!!!COM: Anon.
!!!OTL: Tinha eu dezoito anos
!!!OTL: Romanceiro Folclorico do Brasil
!!!CNT: Brasil
!!!OCY: Brasil
!!!ODT: <1971///
!!!PSR: Irmaos Vitale
!!!PSP: Sao Paulo, Brasil
!!!PDT: 1950///
!!!PPE: Rossini Tavares de Lima
!!!PPG: page 46
!! Romance: Costureira Ou Modista
!! Place: Caxambu, Sao Paulo, Brasil
**kern
*clefG2
*k[]
*M3/4
*MM100
16c
16d
=
8.e
16g
8.c
16d
=
8c
4B
16d
16e
=
8.f
16a
8.d
16e
=
8d
4c
16g
16a
=
8b
4a
16f
16d
=
8a
4g
16e
16c
=
8.B
16f
8.e
16d
=
4.c
==
*-
